Origami/22x22/apps/pac.svg

<svg width="22" height="22" version="1" xmlns="http://www.w3.org/2000/svg">
 <path d="m7 20.5-2-2h-2.5c-0.831 0-1.5-0.669-1.5-1.5v-12c0-0.831 0.669-1.5 1.5-1.5h17c0.831 0 1.5 0.669 1.5 1.5v12c0 0.831-0.669 1.5-1.5 1.5h-2.5l-2 2z" style="opacity:.2"/>
 <path d="m7 20-2-2h-2.5c-0.831 0-1.5-0.669-1.5-1.5v-12c0-0.831 0.669-1.5 1.5-1.5h17c0.831 0 1.5 0.669 1.5 1.5v12c0 0.831-0.669 1.5-1.5 1.5h-2.5l-2 2z" style="fill:#2c80c2"/>
 <path d="m9 17-2.25-2h-2.75v-9h14v9h-3l-2 2z" style="opacity:.5"/>
 <g transform="scale(1,-1)" style="fill:#f8c44e">
  <rect x="7" y="-8" width="1" height="2"/>
  <rect x="9" y="-8" width="1" height="2"/>
  <rect x="11" y="-8" width="1" height="2"/>
  <rect x="13" y="-8" width="1" height="2"/>
  <rect x="15" y="-8" width="1" height="2"/>
 </g>
 <path d="m2.5 3c-0.831 0-1.5 0.669-1.5 1.5v0.5c0-0.831 0.669-1.5 1.5-1.5h17c0.831 0 1.5 0.669 1.5 1.5v-0.5c0-0.831-0.669-1.5-1.5-1.5z" style="fill:#ffffff;opacity:.2"/>
 <path d="m4 15v0.5h2.75l2.25 2h4l2-2h3v-0.5h-3l-2 2h-4l-2.25-2z" style="fill:#ffffff;opacity:.2"/>
</svg>

<svg xmlns="http://www.w3.org/2000/svg" width="22" height="22" version="1">
 <path style="opacity:0.2" d="M 7,20.5 5,18.5 H 2.5 C 1.669,18.5 1,17.831 1,17 V 5 C 1,4.169 1.669,3.5 2.5,3.5 H 19.5 C 20.331,3.5 21,4.169 21,5 V 17 C 21,17.831 20.331,18.5 19.5,18.5 H 17 L 15,20.5 Z"/>
 <path style="fill:#2c80c2" d="M 7,20 5,18 H 2.5 C 1.669,18 1,17.331 1,16.5 V 4.5 C 1,3.669 1.669,3 2.5,3 H 19.5 C 20.331,3 21,3.669 21,4.5 V 16.5 C 21,17.331 20.331,18 19.5,18 H 17 L 15,20 Z"/>
 <path style="opacity:0.5" d="M 9,17 6.75,15 H 4 V 6 H 18 V 15 H 15 L 13,17 Z"/>
 <g style="fill:#f8c44e" transform="scale(1,-1)">
  <rect width="1" height="2" x="7" y="-8"/>
  <rect width="1" height="2" x="9" y="-8"/>
  <rect width="1" height="2" x="11" y="-8"/>
  <rect width="1" height="2" x="13" y="-8"/>
  <rect width="1" height="2" x="15" y="-8"/>
 </g>
 <path style="opacity:0.2;fill:#ffffff" d="M 2.5,3 C 1.669,3 1,3.669 1,4.5 V 5 C 1,4.169 1.669,3.5 2.5,3.5 H 19.5 C 20.331,3.5 21,4.169 21,5 V 4.5 C 21,3.669 20.331,3 19.5,3 Z"/>
 <path style="opacity:0.2;fill:#ffffff" d="M 4,15 V 15.5 H 6.75 L 9,17.5 H 13 L 15,15.5 H 18 V 15 H 15 L 13,17 H 9 L 6.75,15 Z"/>
</svg>
